X: 3211
T: The Bonny Lass of Fisherrow.   a Reel.
C: Daniel Dow.
%R: reel
B: Niel Gow & Sons "Complete Repository" v.3 p.21 #2 (top 4 staves continued from p.20)
Z: 2021 John Chambers <jc:trillian.mit.edu>
M: C
L: 1/8
K: C
% - - - - - - - - - -
V: 1 staves=2
c |\
G<Ec>G AcGE | C>EGE D/D/D TA2 | GEGc AFAc | BdGB c/c/c c :| f | ecgc egca | gcec defa |
gceg fadf | egde c/c/c Tc>f || ecgc egca | gcec defd | cAFc BdGf | egde c/c/c c |]
% - - - - - - - - - -
V: 2 clef=bass middle=d
z | c2c2 [c2f2][c2e2] | c2c2 d2d2 | c2c2 F2F2 | G2G2 c2c :| z | c'2c'2 c'2c'2 | c'2c'2 g2b2 |
c'2c'2 f2f2 | g2G2 c2c2 || c'2c'2 c'2c'2 | c'2c'2 g2b2 | c'2f2 g2b2 | c'2g2 c2c |]


